proprietary/odm/etc/camera/filters_lut/p3_to_bt2020_3dlut.cube
TITLE "1917400007776"
LUT_3D_SIZE 8
#LUT data points
0.0000000 0.0000000 0.0000000
0.1254507 0.0309082 0.0000000
0.2509174 0.0618056 0.0000000
0.3763831 0.0927160 0.0000000
0.5102220 0.1257604 0.0000000
0.6613500 0.1762964 0.0000000
0.8078146 0.2549736 0.0000000
0.9522700 0.3747160 0.0000000
0.0635538 0.1383953 0.0189256
0.1396865 0.1422167 0.0183199
0.2576638 0.1524306 0.0162244
0.3806708 0.1676107 0.0117575
0.5131711 0.1880363 0.0006141
0.6625976 0.2250798 0.0000000
0.8083597 0.2908762 0.0000000
0.9525077 0.4000261 0.0000000
0.1271077 0.2768049 0.0378402
0.1776856 0.2787789 0.0375552
0.2793516 0.2844292 0.0366434
0.3949400 0.2932509 0.0349905
0.5227102 0.3057653 0.0322451
0.6665767 0.3301924 0.0253275
0.8100524 0.3783650 0.0000000
0.9532466 0.4676479 0.0000000
0.1906680 0.4152003 0.0567614
0.2274934 0.4165352 0.0565783
0.3131418 0.4204253 0.0559872
0.4190200 0.4266482 0.0549652
0.5387004 0.4356355 0.0533253
0.6735533 0.4535577 0.0495594
0.8130163 0.4902130 0.0396834
0.9545086 0.5562806 0.0000000
0.2586339 0.5569457 0.0769949
0.2868581 0.5577469 0.0768618
0.3584876 0.5601168 0.0764349
0.4536389 0.5639204 0.0757050
0.5611846 0.5694030 0.0745593
0.6841170 0.5801681 0.0719874
0.8176746 0.6013908 0.0657103
0.9565033 0.6403100 0.0485106
0.3625543 0.7015466 0.1079427
0.3832081 0.7019063 0.1078335
0.4393562 0.7029737 0.1075433
0.5190041 0.7047183 0.1070360
0.6016417 0.7072894 0.1062483
0.7052564 0.7124919 0.1045146
0.8276157 0.7232266 0.1004280
0.9608734 0.7443590 0.0903399
0.5232621 0.8451841 0.1561060
0.5362932 0.8453439 0.1560279
0.5704876 0.8458248 0.1558231
0.6160596 0.8466213 0.1554870
0.6684742 0.8478011 0.1549562
0.7454796 0.8502550 0.1538090
0.8486474 0.8554525 0.1511584
0.9707461 0.8661674 0.1448713
0.6917830 0.9883880 0.2294040
0.6969816 0.9884661 0.2293580
0.7116939 0.9886759 0.2292274
0.7338019 0.9890327 0.2289941
0.7627963 0.9895760 0.2286371
0.8120156 0.9907050 0.2278786
0.8887484 0.9931577 0.2261473
0.9917300 0.9983520 0.2221560
0.0304134 0.0155773 0.1382861
0.1283458 0.0346062 0.1420945
0.2522986 0.0637335 0.1426109
0.3772858 0.0940130 0.1423473
0.5108659 0.1267207 0.1417476
0.6616229 0.1769837 0.1403492
0.8079304 0.2554490 0.1371383
0.9523181 0.3750319 0.1296536
0.0706228 0.1390181 0.1423984
0.1428849 0.1428553 0.1428460
0.2592614 0.1530957 0.1432799
0.3816768 0.1682512 0.1432323
0.5138601 0.1886430 0.1427828
0.6628853 0.2255868 0.1415189
0.8084735 0.2912844 0.1383987
0.9525668 0.4003252 0.1310464
0.1307938 0.2771015 0.1463369
0.1802965 0.2790867 0.1464149
0.2809611 0.2847478 0.1465136
0.3960289 0.2935776 0.1464521
0.5234251 0.3060916 0.1461086
0.6668811 0.3305081 0.1450293
0.8101802 0.3786661 0.1421417
0.9532945 0.4678948 0.1350999
0.1931488 0.4154049 0.1523750
0.2295596 0.4167407 0.1523750
0.3146154 0.4206287 0.1523270
0.4200910 0.4268618 0.1521735
0.5394015 0.4358467 0.1518276
0.6738613 0.4537711 0.1508479
0.8131462 0.4904272 0.1482050
0.9545718 0.5564487 0.1415945
0.2604592 0.5570708 0.1610321
0.2885055 0.5578764 0.1610011
0.3597940 0.5602345 0.1608955
0.4546544 0.5640383 0.1606869
0.5618201 0.5695208 0.1603223
0.6844266 0.5802858 0.1593932
0.8178093 0.6015074 0.1569737
0.9565664 0.6404036 0.1508790
0.3638762 0.7015990 0.1779383
0.3844447 0.7019550 0.1778924
0.4404258 0.7030216 0.1777556
0.5198459 0.7047735 0.1775218
0.6021646 0.7073443 0.1771467
0.7055455 0.7125520 0.1762797
0.8277483 0.7232767 0.1741428
0.9609351 0.7444108 0.1688162
0.5240956 0.8452032 0.2106797
0.5370631 0.8453643 0.2106354
0.5711298 0.8458524 0.2104985
0.6165600 0.8466402 0.2102750
0.6688428 0.8478273 0.2099301
0.7457117 0.8502723 0.2091729
0.8487758 0.8554830 0.2073771
0.9708093 0.8661867 0.2030662
0.6921140 0.9884030 0.2695374
0.6972964 0.9884703 0.2695032
0.7119776 0.9886866 0.2693922
0.7340680 0.9890487 0.2692050
0.7630172 0.9895914 0.2689183
0.8121744 0.9907163 0.2683039
0.8888579 0.9931706 0.2669130
0.9917773 0.9983670 0.2636500
0.0608268 0.0311545 0.2765716
0.1377984 0.0438666 0.2812200
0.2567065 0.0691916 0.2842062
0.3801156 0.0977914 0.2850821
0.5128292 0.1295490 0.2852324
0.6624652 0.1790231 0.2848348
0.8082987 0.2568616 0.2834285
0.9524876 0.3760061 0.2799727
0.0883774 0.1411029 0.2816829
0.1521138 0.1449058 0.2827699
0.2640555 0.1551157 0.2843101
0.3847385 0.1701886 0.2851625
0.5159138 0.1904293 0.2854533
0.6637479 0.2271318 0.2852128
0.8088533 0.2925004 0.2839424
0.9527253 0.4012194 0.2805735
0.1412434 0.2780585 0.2848191
0.1879127 0.2800371 0.2850994
0.2857398 0.2857159 0.2857033
0.3992730 0.2945622 0.2862622
0.5255756 0.3070811 0.2865857
0.6677921 0.3314820 0.2865452
0.8105682 0.3795570 0.2855170
0.9534684 0.4686382 0.2823393
0.2003735 0.4160221 0.2882477
0.2356402 0.4173573 0.2883527
0.3189949 0.4212543 0.2886104
0.4232933 0.4274939 0.2888998
0.5414853 0.4364973 0.2891068
0.6747989 0.4544277 0.2890967
0.8135580 0.4910765 0.2882398
0.9547434 0.5569390 0.2852921
0.2658701 0.5574386 0.2930204
0.2933831 0.5582408 0.2930620
0.3636740 0.5606085 0.2931665
0.4576785 0.5644092 0.2932806
0.5637223 0.5698856 0.2933632
0.6853525 0.5806474 0.2932818
0.8182197 0.6018467 0.2924943
0.9567409 0.6406960 0.2897594
0.3677635 0.7017627 0.3027041
0.3881267 0.7021194 0.3027071
0.4436201 0.7031871 0.3027084
0.5223332 0.7049362 0.3027015
0.6037200 0.7075064 0.3026466
0.7063991 0.7127127 0.3024369
0.8281630 0.7234400 0.3016384
0.9611156 0.7445596 0.2991226
0.5265626 0.8452826 0.3230713
0.5393609 0.8454412 0.3230551
0.5730240 0.8459213 0.3230069
0.6180244 0.8467173 0.3229186
0.6699285 0.8478992 0.3227839
0.7464161 0.8503501 0.3224518
0.8491602 0.8555519 0.3215843
0.9709985 0.8662652 0.3192546
0.6930777 0.9884340 0.3642176
0.6982328 0.9885121 0.3641873
0.7128458 0.9887213 0.3641230
0.7348268 0.9890787 0.3640147
0.7636683 0.9896214 0.3638408
0.8126671 0.9907510 0.3634688
0.8891763 0.9932012 0.3625851
0.9919519 0.9983980 0.3604594
0.0912402 0.0467318 0.4148729
0.1531694 0.0560118 0.4190760
0.2644792 0.0774511 0.4239238
0.3850540 0.1037883 0.4263137
0.5161732 0.1341338 0.4274154
0.6638761 0.1823649 0.4278680
0.8089164 0.2592031 0.4273759
0.9527559 0.3775997 0.4253299
0.1117211 0.1448742 0.4202311
0.1664578 0.1485491 0.4217922
0.2720618 0.1585694 0.4244338
0.3899296 0.1734277 0.4263017
0.5193758 0.1933982 0.4273807
0.6652030 0.2296905 0.4279613
0.8094758 0.2945199 0.4276124
0.9529991 0.4027006 0.4256639
0.1570476 0.2797372 0.4242486
0.1999450 0.2817132 0.4247181
0.2935507 0.2873860 0.4257888
0.4046686 0.2962351 0.4269020
0.5291313 0.3087501 0.4277933
0.6693153 0.3331063 0.4284823
0.8112117 0.3810504 0.4283960
0.9537477 0.4698820 0.4266837
0.2118503 0.4170877 0.4272310
0.2454194 0.4184234 0.4274245
0.3261707 0.4223238 0.4279336
0.4285887 0.4285702 0.4285625
0.5449142 0.4375841 0.4291856
0.6763517 0.4555296 0.4298029
0.8142320 0.4921648 0.4298794
0.9550317 0.5577559 0.4284232
0.2746378 0.5580616 0.4307561
0.3013176 0.5588678 0.4308521
0.3700486 0.5612303 0.4311090
0.4626840 0.5650319 0.4314588
0.5668495 0.5705004 0.4318462
0.6868853 0.5812478 0.4322929
0.8189098 0.6024152 0.4323934
0.9570413 0.6411865 0.4311443
0.3741571 0.7020396 0.4375776
0.3941718 0.7023980 0.4376167
0.4488995 0.7034640 0.4377130
0.5264114 0.7052105 0.4378527
0.6062869 0.7077821 0.4380220
0.7078068 0.7129855 0.4382167
0.8288495 0.7237115 0.4381891
0.9614226 0.7448189 0.4370807
0.5306100 0.8454067 0.4520053
0.5431311 0.8455660 0.4520141
0.5761397 0.8460435 0.4520218
0.6204398 0.8468384 0.4520336
0.6717282 0.8480237 0.4520327
0.7475742 0.8504736 0.4519920
0.8497940 0.8556758 0.4517342
0.9712999 0.8663900 0.4505994
0.6946823 0.9884859 0.4823113
0.6997971 0.9885591 0.4823113
0.7142814 0.9887779 0.4822787
0.7360886 0.9891397 0.4822240
0.7647391 0.9896788 0.4821413
0.8134826 0.9908016 0.4819518
0.8896979 0.9932546 0.4814843
0.9922377 0.9984504 0.4802254
0.1237571 0.0633816 0.5565729
0.1742636 0.0705104 0.5594925
0.2764764 0.0884949 0.5640972
0.3928454 0.1122667 0.5672078
0.5213607 0.1407896 0.5690371
0.6660656 0.1873136 0.5702903
0.8098583 0.2627009 0.5706773
0.9531749 0.3800126 0.5698696
0.1396793 0.1507155 0.5607243
0.1861557 0.1541914 0.5621956
0.2840264 0.1638386 0.5650152
0.3979063 0.1783105 0.5673816
0.5246589 0.1978524 0.5690069
0.6674316 0.2335101 0.5702646
0.8104344 0.2975524 0.5707461
0.9534116 0.4049468 0.5700261
0.1782196 0.2824200 0.5648736
0.2168401 0.2843793 0.5653950
0.3050272 0.2900134 0.5666264
0.4127694 0.2988344 0.5679898
0.5344437 0.3113110 0.5691901
0.6716243 0.3355735 0.5703687
0.8122030 0.3832918 0.5710091
0.9541707 0.4717564 0.5704890
0.2280725 0.4187649 0.5675158
0.2594836 0.4201002 0.5677421
0.3367222 0.4239946 0.5683432
0.4364933 0.4302435 0.5691194
0.5500043 0.4392597 0.5699403
0.6786951 0.4572139 0.5709154
0.8152501 0.4938048 0.5716295
0.9554702 0.5589900 0.5713182
0.2873647 0.5590338 0.5700126
0.3129264 0.5598328 0.5701267
0.3794737 0.5621928 0.5704510
0.4701512 0.5659823 0.5708988
0.5714875 0.5714407 0.5714281
0.6891855 0.5821669 0.5721571
0.8199585 0.6032813 0.5728176
0.9574927 0.6419247 0.5726700
0.3836132 0.7024624 0.5742588
0.4031474 0.7028200 0.5743090
0.4567570 0.7038865 0.5744543
0.5323997 0.7056312 0.5746645
0.6100955 0.7082013 0.5749405
0.7099279 0.7134003 0.5753651
0.8298865 0.7241240 0.5758248
0.9618877 0.7452089 0.5757565
0.5365554 0.8455898 0.5827084
0.5486783 0.8457496 0.5827236
0.5807560 0.8462304 0.5827667
0.6240340 0.8470261 0.5828379
0.6744193 0.8482089 0.5829295
0.7493145 0.8506588 0.5830785
0.8507536 0.8558597 0.5832294
0.9717666 0.8665709 0.5830414
0.6970891 0.9885710 0.5997863
0.7021240 0.9886428 0.5997949
0.7164263 0.9888631 0.5997884
0.7379916 0.9892251 0.5997884
0.7663557 0.9897611 0.5997799
0.8147094 0.9908862 0.5997534
0.8904873 0.9933342 0.5996499
0.9926734 0.9985350 0.5992477
0.1734883 0.0888642 0.7012263
0.2123426 0.0940694 0.7026461
0.3011681 0.1082076 0.7055936
0.4097226 0.1283581 0.7082993
0.5324230 0.1539251 0.7103556
0.6707958 0.1973638 0.7121788
0.8118855 0.2699529 0.7133458
0.9540573 0.3850634 0.7136011
0.1852764 0.1627719 0.7034654
0.2222346 0.1658995 0.7044172
0.3082861 0.1748015 0.7065244
0.4148503 0.1884250 0.7086716
0.5357516 0.2070649 0.7104463
0.6722214 0.2414341 0.7121531
0.8124920 0.3038740 0.7133284
0.9543139 0.4096437 0.7136340
0.2161011 0.2884147 0.7066667
0.2487480 0.2903119 0.7071030
0.3280837 0.2958076 0.7081787
0.4296065 0.3044828 0.7094748
0.5453860 0.3168047 0.7107370
0.6765192 0.3408006 0.7121715
0.8143149 0.3880148 0.7133428
0.9550841 0.4757032 0.7137518
0.2589260 0.4224980 0.7088754
0.2868769 0.4238179 0.7090887
0.3580140 0.4276863 0.7096557
0.4528091 0.4339079 0.7104144
0.5603833 0.4429107 0.7112579
0.6836063 0.4608203 0.7123744
0.8174137 0.4972798 0.7134668
0.9564044 0.5615730 0.7139846
0.3125087 0.5611556 0.7106300
0.3361058 0.5619545 0.7107368
0.3986564 0.5642885 0.7110530
0.4855606 0.5680472 0.7115052
0.5809296 0.5734725 0.7120566
0.6939760 0.5841334 0.7128843
0.8221551 0.6051131 0.7138374
0.9584457 0.6434926 0.7144212
0.4028423 0.7033744 0.7130318
0.4214583 0.7037303 0.7130838
0.4729264 0.7047968 0.7132395
0.5444320 0.7065368 0.7134700
0.6178904 0.7091024 0.7137756
0.7143367 0.7142970 0.7142878
0.8320638 0.7250009 0.7149886
0.9628747 0.7460403 0.7155519
0.5485051 0.8459866 0.7172558
0.5598538 0.8461455 0.7172764
0.5901208 0.8466270 0.7173384
0.6314012 0.8474235 0.7174361
0.6799668 0.8486035 0.7175705
0.7529388 0.8510566 0.7178128
0.8527738 0.8562567 0.7182010
0.9727475 0.8669579 0.7185840
0.7020480 0.9887454 0.7256533
0.7069551 0.9888237 0.7256576
0.7208833 0.9890363 0.7256766
0.7419391 0.9893924 0.7257042
0.7697222 0.9899336 0.7257453
0.8172678 0.9910624 0.7258139
0.8921416 0.9935132 0.7259325
0.9935826 0.9987094 0.7260329
0.2509063 0.1285091 0.8448791
0.2791138 0.1321721 0.8455504
0.3508959 0.1425693 0.8472192
0.4465474 0.1583990 0.8491885
0.5561113 0.1797196 0.8510956
0.6815075 0.2180697 0.8532630
0.8165306 0.2854292 0.8551569
0.9560693 0.3960523 0.8562946
0.2592434 0.1871842 0.8460219
0.2867079 0.1898368 0.8465616
0.3570543 0.1975196 0.8479359
0.4514174 0.2095950 0.8496157
0.5592073 0.2264742 0.8513070
0.6829631 0.2583162 0.8533102
0.8171676 0.3175183 0.8551529
0.9563241 0.4199179 0.8562817
0.2823549 0.3021175 0.8482271
0.3079190 0.3038834 0.8485556
0.3745054 0.3090401 0.8494249
0.4653821 0.3172944 0.8505711
0.5680703 0.3291454 0.8518282
0.6872748 0.3524077 0.8534635
0.8190679 0.3984220 0.8551377
0.9571381 0.4843832 0.8562796
0.3166337 0.4313165 0.8501783
0.3397475 0.4325906 0.8503623
0.4012985 0.4363538 0.8508752
0.4872847 0.4424424 0.8516009
0.5817173 0.4512981 0.8524643
0.6942351 0.4689963 0.8537183
0.8222428 0.5049789 0.8551626
0.9584976 0.5672102 0.8562967
0.3619735 0.5661116 0.8517326
0.3824486 0.5668807 0.8518371
0.4381977 0.5691502 0.8521461
0.5175764 0.5728185 0.8526033
0.6003578 0.5781199 0.8531754
0.7042670 0.5885798 0.8540938
0.8269989 0.6091979 0.8552903
0.9605839 0.6469428 0.8563712
0.4424853 0.7054844 0.8535258
0.4594488 0.7058404 0.8535855
0.5067948 0.7068917 0.8537367
0.5685559 0.7086223 0.8539884
0.6340966 0.7111708 0.8543133
0.7237785 0.7163314 0.8548861
0.8368324 0.7269710 0.8557546
0.9650524 0.7478803 0.8567023
0.5724556 0.8468972 0.8559676
0.5824123 0.8470565 0.8559865
0.6093001 0.8475374 0.8560600
0.6467353 0.8483280 0.8561747
0.6917065 0.8495122 0.8563315
0.7607502 0.8519527 0.8566306
0.8571743 0.8571501 0.8571445
0.9749141 0.8678346 0.8578397
0.7126134 0.9891423 0.8601644
0.7172244 0.9892204 0.8601773
0.7304000 0.9894392 0.8602074
0.7504067 0.9897870 0.8602522
0.7769819 0.9903303 0.8603135
0.8228167 0.9914593 0.8604321
0.8957759 0.9939116 0.8606740
0.9956053 0.9991063 0.8610430
0.3687340 0.1888610 0.9880980
0.3884601 0.1913677 0.9884117
0.4425616 0.1986881 0.9892576
0.5201561 0.2103301 0.9904457
0.6014233 0.2268120 0.9918346
0.7045483 0.2582349 0.9938263
0.8270849 0.3171460 0.9961351
0.9606620 0.4194550 0.9980770
0.3744743 0.2326933 0.9886473
0.3939400 0.2347946 0.9889309
0.4474421 0.2409390 0.9896977
0.5240301 0.2508185 0.9907762
0.6038952 0.2650092 0.9920616
0.7059091 0.2926542 0.9939414
0.8277393 0.3460419 0.9961660
0.9609457 0.4419213 0.9980770
0.3910017 0.3316350 0.9899574
0.4097561 0.3331821 0.9901623
0.4615590 0.3377549 0.9907529
0.5350066 0.3451688 0.9916074
0.6110181 0.3559835 0.9926540
0.7099190 0.3775559 0.9942419
0.8296729 0.4209343 0.9962357
0.9617959 0.5032080 0.9980620
0.4167347 0.4515951 0.9914350
0.4344550 0.4527801 0.9915859
0.4837948 0.4562927 0.9919953
0.5516301 0.4620214 0.9926167
0.6220937 0.4704413 0.9933977
0.7163208 0.4874374 0.9946617
0.8328570 0.5215082 0.9963621
0.9632124 0.5792546 0.9980470
0.4524907 0.5774669 0.9928394
0.4689319 0.5781871 0.9929343
0.5147226 0.5802849 0.9932160
0.5737944 0.5837059 0.9936383
0.6373941 0.5886866 0.9941996
0.7254723 0.5985763 0.9951480
0.8375529 0.6182413 0.9965448
0.9653554 0.6544940 0.9980620
0.5188286 0.7104276 0.9945111
0.5320268 0.7107793 0.9945636
0.5666340 0.7117986 0.9947193
0.6126879 0.7134745 0.9949646
0.6655841 0.7159582 0.9953021
0.7432087 0.7210089 0.9959195
0.8470938 0.7314545 0.9969131
0.9698657 0.7520060 0.9981754
0.6162706 0.8490054 0.9963986
0.6240827 0.8491649 0.9964276
0.6456495 0.8496400 0.9965039
0.6766693 0.8504212 0.9966211
0.7153069 0.8515914 0.9967924
0.7769581 0.8540229 0.9971249
0.8666109 0.8591820 0.9977284
0.9796774 0.8698143 0.9986160
0.7340200 0.9900510 0.9988560
0.7381179 0.9901293 0.9988710
0.7498654 0.9903346 0.9989010
0.7678797 0.9906967 0.9989534
0.7920961 0.9912394 0.9990321
0.8345707 0.9923637 0.9991824
0.9035760 0.9948057 0.9994767
1.0000000 1.0000000 1.0000000
