proprietary/odm/etc/camera/filters_lut/p3_to_bt2020_3dlut.cube
TITLE "1917400007776"
LUT_3D_SIZE 4
#LUT data points
0.0000000 0.0000000 0.0000000
0.2927397 0.0721142 0.0000000
0.6117033 0.1568270 0.0000000
0.9522700 0.3747160 0.0000000
0.1482973 0.3229367 0.0441494
0.3259088 0.3318399 0.0427507
0.6213201 0.3610998 0.0365521
0.9536077 0.4968697 0.0000000
0.3225197 0.6534983 0.0960148
0.4334493 0.6560144 0.0954045
0.6573364 0.6648187 0.0929732
0.9589940 0.7072863 0.0754864
0.6917830 0.9883880 0.2294040
0.7183643 0.9887843 0.2291550
0.7927213 0.9902343 0.2281987
0.9917300 0.9983520 0.2221560
0.0709646 0.0363470 0.3226723
0.2994906 0.0807253 0.3315768
0.6137143 0.1609743 0.3327417
0.9525650 0.3764657 0.3286590
0.1647754 0.3244001 0.3322853
0.3333550 0.3333323 0.3333233
0.6235477 0.3626402 0.3343959
0.9539128 0.4981310 0.3313022
0.3304377 0.6538864 0.3435569
0.4392963 0.6564041 0.3436899
0.6593611 0.6652070 0.3438513
0.9593348 0.7076420 0.3413338
0.6935480 0.9884490 0.4019230
0.7198798 0.9888420 0.4018193
0.7937182 0.9902887 0.4014412
0.9920300 0.9984130 0.3987690
0.1543243 0.0790468 0.6531627
0.3269027 0.1069507 0.6595103
0.6215629 0.1755669 0.6644861
0.9536837 0.3829203 0.6658273
0.2150369 0.3305033 0.6603207
0.3599474 0.3393266 0.6619194
0.6317823 0.3684929 0.6645811
0.9550723 0.5027813 0.6661934
0.3583549 0.6553883 0.6653747
0.4604331 0.6579030 0.6657224
0.6667216 0.6666786 0.6666672
0.9605653 0.7089629 0.6680163
0.6999617 0.9886730 0.6824397
0.7254120 0.9890643 0.6824647
0.7973703 0.9905140 0.6825327
0.9932043 0.9986370 0.6825713
0.3687340 0.1888610 0.9880980
0.4664837 0.2021260 0.9896237
0.6675720 0.2453700 0.9931027
0.9606620 0.4194550 0.9980770
0.3986523 0.3701733 0.9904530
0.4908963 0.3777303 0.9914008
0.6765204 0.4040149 0.9938153
0.9622037 0.5286843 0.9980570
0.4922000 0.6652630 0.9939270
0.5626493 0.6676417 0.9942780
0.7055568 0.6760203 0.9953408
0.9679560 0.7168383 0.9981180
0.7340200 0.9900510 0.9988560
0.7552507 0.9904430 0.9989170
0.8177257 0.9918823 0.9991200
1.0000000 1.0000000 1.0000000
