proprietary/odm/etc/camera/filters_lut/p3_to_bt2020_3dlut.cube
TITLE "1917400007776"
LUT_3D_SIZE 64
#LUT data points
0.0000000 0.0000000 0.0000000
0.0139206 0.0034260 0.0000000
0.0278712 0.0068668 0.0000000
0.0418068 0.0102933 0.0000000
0.0557433 0.0137336 0.0000000
0.0696933 0.0171605 0.0000000
0.0836289 0.0206018 0.0000000
0.0975662 0.0240414 0.0000000
0.1115150 0.0274692 0.0000000
0.1254507 0.0309082 0.0000000
0.1393888 0.0343364 0.0000000
0.1533372 0.0377750 0.0000000
0.1672730 0.0412037 0.0000000
0.1812087 0.0446419 0.0000000
0.1951478 0.0480710 0.0000000
0.2090952 0.0515086 0.0000000
0.2230309 0.0549383 0.0000000
0.2369707 0.0583755 0.0000000
0.2509174 0.0618056 0.0000000
0.2648532 0.0652422 0.0000000
0.2787937 0.0686729 0.0000000
0.2927397 0.0721142 0.0000000
0.3066751 0.0755501 0.0000000
0.3206156 0.0789814 0.0000000
0.3345609 0.0824169 0.0000000
0.3484967 0.0858487 0.0000000
0.3624386 0.0892837 0.0000000
0.3763831 0.0927160 0.0000000
0.3903189 0.0961505 0.0000000
0.4042546 0.0995831 0.0000000
0.4181975 0.1030172 0.0000000
0.4321411 0.1064506 0.0000000
0.4462780 0.1099381 0.0000000
0.4610403 0.1135682 0.0000000
0.4766454 0.1174119 0.0000000
0.4931340 0.1214752 0.0000000
0.5102220 0.1257604 0.0000000
0.5273971 0.1302909 0.0000000
0.5444525 0.1350638 0.0000000
0.5614003 0.1400918 0.0000000
0.5782537 0.1453874 0.0000000
0.5950231 0.1509607 0.0000000
0.6117033 0.1568270 0.0000000
0.6283207 0.1630031 0.0000000
0.6448694 0.1694837 0.0000000
0.6613500 0.1762964 0.0000000
0.6777903 0.1834551 0.0000000
0.6941758 0.1909713 0.0000000
0.7105103 0.1988610 0.0000000
0.7268092 0.2071409 0.0000000
0.7430770 0.2158268 0.0000000
0.7593008 0.2249344 0.0000000
0.7755020 0.2344786 0.0000000
0.7916622 0.2444902 0.0000000
0.8078146 0.2549736 0.0000000
0.8239268 0.2659564 0.0000000
0.8400324 0.2774704 0.0000000
0.8561110 0.2895190 0.0000000
0.8721714 0.3021454 0.0000000
0.8882172 0.3153677 0.0000000
0.9042457 0.3292037 0.0000000
0.9202741 0.3436836 0.0000000
0.9362720 0.3588536 0.0000000
0.9522700 0.3747160 0.0000000
0.0070533 0.0153620 0.0020929
0.0155293 0.0157886 0.0020288
0.0286326 0.0169440 0.0017903
0.0422984 0.0186280 0.0012619
0.0561062 0.0207567 0.0000560
0.0699641 0.0231796 0.0000494
0.0838658 0.0258330 0.0000395
0.0977688 0.0286552 0.0000235
0.1116761 0.0315984 0.0000000
0.1256084 0.0346216 0.0000000
0.1395275 0.0377221 0.0000000
0.1534499 0.0408809 0.0000000
0.1673852 0.0440724 0.0000000
0.1813204 0.0472961 0.0000000
0.1952557 0.0505519 0.0000000
0.2091875 0.0538324 0.0000000
0.2231110 0.0571213 0.0000000
0.2370465 0.0604338 0.0000000
0.2509862 0.0637556 0.0000000
0.2649323 0.0670953 0.0000000
0.2788680 0.0704343 0.0000000
0.2928036 0.0737947 0.0000000
0.3067389 0.0771554 0.0000000
0.3206738 0.0805164 0.0000000
0.3346096 0.0838835 0.0000000
0.3485511 0.0872604 0.0000000
0.3624956 0.0906436 0.0000000
0.3764313 0.0940297 0.0000000
0.3903671 0.0974139 0.0000000
0.4043028 0.1008069 0.0000000
0.4182456 0.1042001 0.0000000
0.4321891 0.1075931 0.0000000
0.4463258 0.1110405 0.0000000
0.4610798 0.1146464 0.0000000
0.4766779 0.1184565 0.0000000
0.4931668 0.1224800 0.0000000
0.5102547 0.1267328 0.0000000
0.5274291 0.1312307 0.0000000
0.5444839 0.1359707 0.0000000
0.5614321 0.1409664 0.0000000
0.5782764 0.1462296 0.0000000
0.5950395 0.1517707 0.0000000
0.6117298 0.1576053 0.0000000
0.6283416 0.1637488 0.0000000
0.6448851 0.1702078 0.0000000
0.6613657 0.1769926 0.0000000
0.6777951 0.1841302 0.0000000
0.6941875 0.1916182 0.0000000
0.7105258 0.1994761 0.0000000
0.7268247 0.2077359 0.0000000
0.7430805 0.2163928 0.0000000
0.7593132 0.2254801 0.0000000
0.7755050 0.2350087 0.0000000
0.7916759 0.2449908 0.0000000
0.8078171 0.2554554 0.0000000
0.8239410 0.2664222 0.0000000
0.8400345 0.2779061 0.0000000
0.8561112 0.2899503 0.0000000
0.8721716 0.3025473 0.0000000
0.8882174 0.3157533 0.0000000
0.9042610 0.3295724 0.0000000
0.9202746 0.3440353 0.0000000
0.9362723 0.3591894 0.0000000
0.9522702 0.3750360 0.0000000
0.0141214 0.0307391 0.0042011
0.0197586 0.0309607 0.0041691
0.0310510 0.0316004 0.0040742
0.0438924 0.0325821 0.0038864
0.0572643 0.0338747 0.0036032
0.0708695 0.0354463 0.0031913
0.0845866 0.0372635 0.0025804
0.0983796 0.0392831 0.0015868
0.1122063 0.0414875 0.0001395
0.1260643 0.0438471 0.0001193
0.1399478 0.0463435 0.0000902
0.1538250 0.0489482 0.0000452
0.1677282 0.0516482 0.0000000
0.1816310 0.0544369 0.0000000
0.1955374 0.0572895 0.0000000
0.2094569 0.0602020 0.0000000
0.2233762 0.0631624 0.0000000
0.2372950 0.0661711 0.0000000
0.2512143 0.0692231 0.0000000
0.2651382 0.0723073 0.0000000
0.2790687 0.0754234 0.0000000
0.2929937 0.0785663 0.0000000
0.3069233 0.0817262 0.0000000
0.3208482 0.0849076 0.0000000
0.3347834 0.0881146 0.0000000
0.3487129 0.0913382 0.0000000
0.3626390 0.0945718 0.0000000
0.3765739 0.0978187 0.0000000
0.3905094 0.1010837 0.0000000
0.4044447 0.1043560 0.0000000
0.4183802 0.1076372 0.0000000
0.4323157 0.1109262 0.0000000
0.4464447 0.1142775 0.0000000
0.4611988 0.1177790 0.0000000
0.4768037 0.1214862 0.0000000
0.4932845 0.1254137 0.0000000
0.5103652 0.1295707 0.0000000
0.5275302 0.1339723 0.0000000
0.5445698 0.1386166 0.0000000
0.5615113 0.1435254 0.0000000
0.5783548 0.1486984 0.0000000
0.5951087 0.1541533 0.0000000
0.6117834 0.1599075 0.0000000
0.6283897 0.1659610 0.0000000
0.6449329 0.1723344 0.0000000
0.6614134 0.1790392 0.0000000
0.6778417 0.1860966 0.0000000
0.6942235 0.1935160 0.0000000
0.7105582 0.2012982 0.0000000
0.7268568 0.2094778 0.0000000
0.7431117 0.2180667 0.0000000
0.7593323 0.2270896 0.0000000
0.7755338 0.2365538 0.0000000
0.7916946 0.2464718 0.0000000
0.8078329 0.2568726 0.0000000
0.8239567 0.2677883 0.0000000
0.8400511 0.2792232 0.0000000
0.8561270 0.2912055 0.0000000
0.8721883 0.3037536 0.0000000
0.8882332 0.3169109 0.0000000
0.9042622 0.3306814 0.0000000
0.9202756 0.3450973 0.0000000
0.9362883 0.3602030 0.0000000
0.9522850 0.3760164 0.0000000
0.0211751 0.0461164 0.0063085
0.0253081 0.0462743 0.0062778
0.0348122 0.0467108 0.0062151
0.0465703 0.0473970 0.0061052
0.0592886 0.0483309 0.0059331
0.0724600 0.0494805 0.0056995
0.0858946 0.0508178 0.0054008
0.0994720 0.0523413 0.0050092
0.1131556 0.0540340 0.0045218
0.1268880 0.0558820 0.0038973
0.1406674 0.0578685 0.0030020
0.1544794 0.0599809 0.0016256
0.1683205 0.0622157 0.0002385
0.1821755 0.0645577 0.0001980
0.1960377 0.0669914 0.0001386
0.2099240 0.0695005 0.0000548
0.2238107 0.0720813 0.0000000
0.2376979 0.0747438 0.0000000
0.2515903 0.0774587 0.0000000
0.2654977 0.0802324 0.0000000
0.2794114 0.0830493 0.0000000
0.2933200 0.0859088 0.0000000
0.3072337 0.0888201 0.0000000
0.3211430 0.0917589 0.0000000
0.3350624 0.0947258 0.0000000
0.3489816 0.0977336 0.0000000
0.3629013 0.1007673 0.0000000
0.3768271 0.1038239 0.0000000
0.3907549 0.1069057 0.0000000
0.4046750 0.1100038 0.0000000
0.4186018 0.1131181 0.0000000
0.4325289 0.1162558 0.0000000
0.4466502 0.1194560 0.0000000
0.4613964 0.1228070 0.0000000
0.4769936 0.1263704 0.0000000
0.4934736 0.1301543 0.0000000
0.5105365 0.1341674 0.0000000
0.5276794 0.1384168 0.0000000
0.5447122 0.1429210 0.0000000
0.5616435 0.1476831 0.0000000
0.5784717 0.1527162 0.0000000
0.5952187 0.1580332 0.0000000
0.6118829 0.1636542 0.0000000
0.6284834 0.1695796 0.0000000
0.6450160 0.1758152 0.0000000
0.6614916 0.1823981 0.0000000
0.6779091 0.1893213 0.0000000
0.6942864 0.1966203 0.0000000
0.7106209 0.2042899 0.0000000
0.7269076 0.2123575 0.0000000
0.7431592 0.2208346 0.0000000
0.7593797 0.2297457 0.0000000
0.7755685 0.2390979 0.0000000
0.7917389 0.2489170 0.0000000
0.8078672 0.2592222 0.0000000
0.8239881 0.2700417 0.0000000
0.8400817 0.2813802 0.0000000
0.8561584 0.2932802 0.0000000
0.8722189 0.3057483 0.0000000
0.8882631 0.3188117 0.0000000
0.9042788 0.3325015 0.0000000
0.9203058 0.3468515 0.0000000
0.9363038 0.3618774 0.0000000
0.9522865 0.3776262 0.0000000
0.0282427 0.0614936 0.0084021
0.0314586 0.0616188 0.0083862
0.0395125 0.0619466 0.0083397
0.0501567 0.0624771 0.0082610
0.0621014 0.0632073 0.0081371
0.0747308 0.0641086 0.0079804
0.0877758 0.0651676 0.0077753
0.1010595 0.0663920 0.0075116
0.1145243 0.0677469 0.0072008
0.1280886 0.0692522 0.0068375
0.1417408 0.0708833 0.0063849
0.1554425 0.0726367 0.0058499
0.1691912 0.0744994 0.0052010
0.1829684 0.0764724 0.0043731
0.1967667 0.0785488 0.0031677
0.2105926 0.0807074 0.0014762
0.2244312 0.0829557 0.0003459
0.2382786 0.0852792 0.0002784
0.2521490 0.0876712 0.0001719
0.2660205 0.0901322 0.0000379
0.2798964 0.0926507 0.0000000
0.2937835 0.0952328 0.0000000
0.3076709 0.0978583 0.0000000
0.3215640 0.1005404 0.0000000
0.3354667 0.1032650 0.0000000
0.3493700 0.1060276 0.0000000
0.3632736 0.1088314 0.0000000
0.3771835 0.1116673 0.0000000
0.3910953 0.1145355 0.0000000
0.4050060 0.1174358 0.0000000
0.4189250 0.1203671 0.0000000
0.4328371 0.1233229 0.0000000
0.4469501 0.1263414 0.0000000
0.4616879 0.1295181 0.0000000
0.4772696 0.1328995 0.0000000
0.4937341 0.1365024 0.0000000
0.5107809 0.1403324 0.0000000
0.5279073 0.1444005 0.0000000
0.5449231 0.1487293 0.0000000
0.5618293 0.1533166 0.0000000
0.5786450 0.1581657 0.0000000
0.5953721 0.1633028 0.0000000
0.6120253 0.1687481 0.0000000
0.6286053 0.1744985 0.0000000
0.6451272 0.1805698 0.0000000
0.6615920 0.1869819 0.0000000
0.6780047 0.1937521 0.0000000
0.6943697 0.2008847 0.0000000
0.7106994 0.2083916 0.0000000
0.7269747 0.2163114 0.0000000
0.7432223 0.2246441 0.0000000
0.7594426 0.2334002 0.0000000
0.7756307 0.2426180 0.0000000
0.7917881 0.2522971 0.0000000
0.8079147 0.2624713 0.0000000
0.8240349 0.2731627 0.0000000
0.8401165 0.2843743 0.0000000
0.8561901 0.2961473 0.0000000
0.8722503 0.3085007 0.0000000
0.8882820 0.3214651 0.0000000
0.9043087 0.3350453 0.0000000
0.9203225 0.3492830 0.0000000
0.9363200 0.3642125 0.0000000
0.9523170 0.3798654 0.0000000
0.0352970 0.0768721 0.0105103
0.0379205 0.0769652 0.0104946
0.0448301 0.0772315 0.0104626
0.0544255 0.0776666 0.0103993
0.0655797 0.0782579 0.0103067
0.0776182 0.0790041 0.0101805
0.0902012 0.0798883 0.0100121
0.1031417 0.0809009 0.0098236
0.1163302 0.0820480 0.0095909
0.1296877 0.0833073 0.0093249
0.1431537 0.0846890 0.0090115
0.1567052 0.0861772 0.0086413
0.1703404 0.0877635 0.0082306
0.1840127 0.0894577 0.0077446
0.1977296 0.0912544 0.0071794
0.2114795 0.0931300 0.0065164
0.2252578 0.0950850 0.0057146
0.2390528 0.0971219 0.0046885
0.2528682 0.0992446 0.0030896
0.2667017 0.1014303 0.0010825
0.2805353 0.1036788 0.0004551
0.2943899 0.1059951 0.0003544
0.3082504 0.1083752 0.0001781
0.3221203 0.1107987 0.0000000
0.3359921 0.1132787 0.0000000
0.3498701 0.1158062 0.0000000
0.3637567 0.1183812 0.0000000
0.3776438 0.1209973 0.0000000
0.3915381 0.1236526 0.0000000
0.4054341 0.1263481 0.0000000
0.4193290 0.1290750 0.0000000
0.4332321 0.1318346 0.0000000
0.4473372 0.1346643 0.0000000
0.4620594 0.1376515 0.0000000
0.4776321 0.1408435 0.0000000
0.4940870 0.1442485 0.0000000
0.5111091 0.1478823 0.0000000
0.5282035 0.1517511 0.0000000
0.5451880 0.1558657 0.0000000
0.5620719 0.1602507 0.0000000
0.5788620 0.1649002 0.0000000
0.5955674 0.1698413 0.0000000
0.6122040 0.1750759 0.0000000
0.6287777 0.1806254 0.0000000
0.6452788 0.1865053 0.0000000
0.6617331 0.1927170 0.0000000
0.6781339 0.1992921 0.0000000
0.6944843 0.2062336 0.0000000
0.7107988 0.2135606 0.0000000
0.7270698 0.2212829 0.0000000
0.7433051 0.2294344 0.0000000
0.7595213 0.2380261 0.0000000
0.7756983 0.2470603 0.0000000
0.7918516 0.2565849 0.0000000
0.8079779 0.2665898 0.0000000
0.8240848 0.2771191 0.0000000
0.8401759 0.2881856 0.0000000
0.8562392 0.2998140 0.0000000
0.8722844 0.3120108 0.0000000
0.8883270 0.3248302 0.0000000
0.9043420 0.3382810 0.0000000
0.9203543 0.3523915 0.0000000
0.9363514 0.3671928 0.0000000
0.9523347 0.3827184 0.0000000
0.0423656 0.0922633 0.0126170
0.0445804 0.0923279 0.0126028
0.0505796 0.0925599 0.0125708
0.0592482 0.0929185 0.0125102
0.0696143 0.0934171 0.0124454
0.0810337 0.0940524 0.0123373
0.0931345 0.0948017 0.0122132
0.1056881 0.0956838 0.0120564
0.1185654 0.0966633 0.0118696
0.1316587 0.0977503 0.0116547
0.1449133 0.0989452 0.0114181
0.1583036 0.1002367 0.0111360
0.1717842 0.1016300 0.0108118
0.1853323 0.1031050 0.0104520
0.1989410 0.1046719 0.0100468
0.2125991 0.1063199 0.0095931
0.2263001 0.1080538 0.0090771
0.2400304 0.1098586 0.0084933
0.2537821 0.1117485 0.0078196
0.2675566 0.1137016 0.0070388
0.2813423 0.1157177 0.0060915
0.2951542 0.1178023 0.0048771
0.3089764 0.1199538 0.0027912
0.3228054 0.1221579 0.0006722
0.3366494 0.1244190 0.0005639
0.3505037 0.1267284 0.0004197
0.3643593 0.1290858 0.0001852
0.3782222 0.1314905 0.0000000
0.3920929 0.1339420 0.0000000
0.4059640 0.1364340 0.0000000
0.4198423 0.1389647 0.0000000
0.4337295 0.1415362 0.0000000
0.4478179 0.1441784 0.0000000
0.4625242 0.1469702 0.0000000
0.4780746 0.1499659 0.0000000
0.4945060 0.1531733 0.0000000
0.5115024 0.1566016 0.0000000
0.5285642 0.1602578 0.0000000
0.5455167 0.1641620 0.0000000
0.5623690 0.1683320 0.0000000
0.5791350 0.1727701 0.0000000
0.5958145 0.1774948 0.0000000
0.6124299 0.1825091 0.0000000
0.6289775 0.1878379 0.0000000
0.6454671 0.1934968 0.0000000
0.6618997 0.1994971 0.0000000
0.6782815 0.2058542 0.0000000
0.6946257 0.2125854 0.0000000
0.7109278 0.2196954 0.0000000
0.7271940 0.2272190 0.0000000
0.7434181 0.2351659 0.0000000
0.7596191 0.2435513 0.0000000
0.7757912 0.2523922 0.0000000
0.7919333 0.2617149 0.0000000
0.8080554 0.2715379 0.0000000
0.8241499 0.2818799 0.0000000
0.8402270 0.2927684 0.0000000
0.8563000 0.3042205 0.0000000
0.8723451 0.3162559 0.0000000
0.8883746 0.3289030 0.0000000
0.9043887 0.3421936 0.0000000
0.9204010 0.3561576 0.0000000
0.9363837 0.3708023 0.0000000
0.9523799 0.3861825 0.0000000
0.0494324 0.1076409 0.0147114
0.0513364 0.1077030 0.0147092
0.0566235 0.1078910 0.0146794
0.0644881 0.1082031 0.0146323
0.0741127 0.1086369 0.0145701
0.0849126 0.1091835 0.0144786
0.0965054 0.1098485 0.0143816
0.1086534 0.1106112 0.0142438
0.1211867 0.1114777 0.0140901
0.1339905 0.1124287 0.0139172
0.1470231 0.1134837 0.0137142
0.1602104 0.1146303 0.0134825
0.1735117 0.1158560 0.0132299
0.1869176 0.1171624 0.0129360
0.2004049 0.1185593 0.0126135
0.2139613 0.1200338 0.0122639
0.2275558 0.1215823 0.0118618
0.2411990 0.1231977 0.0114245
0.2548817 0.1248915 0.0109417
0.2685865 0.1266542 0.0104093
0.2823219 0.1284742 0.0098121
0.2960801 0.1303668 0.0091345
0.3098497 0.1323168 0.0083635
0.3236407 0.1343200 0.0074672
0.3374379 0.1363808 0.0063778
0.3512515 0.1384950 0.0049446
0.3650800 0.1406639 0.0026560
0.3789184 0.1428813 0.0008102
0.3927580 0.1451458 0.0006659
0.4066052 0.1474510 0.0004664
0.4204598 0.1497954 0.0001767
0.4343217 0.1521864 0.0000000
0.4483865 0.1546553 0.0000000
0.4630768 0.1572666 0.0000000
0.4786173 0.1600674 0.0000000
0.4950246 0.1630795 0.0000000
0.5119804 0.1663036 0.0000000
0.5289949 0.1697576 0.0000000
0.5459074 0.1734535 0.0000000
0.5627265 0.1774040 0.0000000
0.5794525 0.1816228 0.0000000
0.5961043 0.1861184 0.0000000
0.6126930 0.1909157 0.0000000
0.6292188 0.1960186 0.0000000
0.6456829 0.2014507 0.0000000
0.6620953 0.2072191 0.0000000
0.6784701 0.2133401 0.0000000
0.6947918 0.2198459 0.0000000
0.7110743 0.2267336 0.0000000
0.7273248 0.2340347 0.0000000
0.7435441 0.2417502 0.0000000
0.7597324 0.2499109 0.0000000
0.7758904 0.2585412 0.0000000
0.7920279 0.2676560 0.0000000
0.8081366 0.2772617 0.0000000
0.8242289 0.2874061 0.0000000
0.8403044 0.2980893 0.0000000
0.8563650 0.3093368 0.0000000
0.8723962 0.3211803 0.0000000
0.8884231 0.3336495 0.0000000
0.9044362 0.3467633 0.0000000
0.9204478 0.3605390 0.0000000
0.9364304 0.3750215 0.0000000
0.9524121 0.3902294 0.0000000
0.0564875 0.1230182 0.0168195
0.0581694 0.1230658 0.0168041
0.0628837 0.1232378 0.0167876
0.0700519 0.1235157 0.0167411
0.0789963 0.1238910 0.0166928
0.0891941 0.1243852 0.0166160
0.1002873 0.1249630 0.0165235
0.1120029 0.1256436 0.0164151
0.1241675 0.1264086 0.0162876
0.1366756 0.1272742 0.0161341
0.1494473 0.1282080 0.0159611
0.1624177 0.1292309 0.0157608
0.1755409 0.1303342 0.0155448
0.1887795 0.1315138 0.0153099
0.2021238 0.1327719 0.0150440
0.2155455 0.1341031 0.0147481
0.2290336 0.1354991 0.0144212
0.2425800 0.1369604 0.0140644
0.2561743 0.1384956 0.0136765
0.2698094 0.1400943 0.0132581
0.2834712 0.1417543 0.0127989
0.2971644 0.1434771 0.0122903
0.3108770 0.1452567 0.0117396
0.3246197 0.1470902 0.0111251
0.3383743 0.1489858 0.0104414
0.3521475 0.1509310 0.0096805
0.3659294 0.1529225 0.0088114
0.3797276 0.1549697 0.0078004
0.3935410 0.1570631 0.0065674
0.4073641 0.1592036 0.0048880
0.4211872 0.1613848 0.0024847
0.4350177 0.1636053 0.0009459
0.4490587 0.1659034 0.0007549
0.4637241 0.1683433 0.0004451
0.4792394 0.1709717 0.0001195
0.4956224 0.1737955 0.0000000
0.5125366 0.1768322 0.0000000
0.5295024 0.1800877 0.0000000
0.5463594 0.1835745 0.0000000
0.5631345 0.1873119 0.0000000
0.5798271 0.1913193 0.0000000
0.5964468 0.1955996 0.0000000
0.6130039 0.2001676 0.0000000
0.6294979 0.2050452 0.0000000
0.6459399 0.2102379 0.0000000
0.6623348 0.2157761 0.0000000
0.6786837 0.2216653 0.0000000
0.6949858 0.2279335 0.0000000
0.7112524 0.2345859 0.0000000
0.7274860 0.2416496 0.0000000
0.7436893 0.2491375 0.0000000
0.7598629 0.2570665 0.0000000
0.7760150 0.2654602 0.0000000
0.7921406 0.2743387 0.0000000
0.8082358 0.2837299 0.0000000
0.8243228 0.2936434 0.0000000
0.8403852 0.3041032 0.0000000
0.8564432 0.3151426 0.0000000
0.8724736 0.3267788 0.0000000
0.8884878 0.3390417 0.0000000
0.9044984 0.3519491 0.0000000
0.9204968 0.3655324 0.0000000
0.9364790 0.3798241 0.0000000
0.9524588 0.3948545 0.0000000
0.0635538 0.1383953 0.0189256
0.0650491 0.1384428 0.0189122
0.0692997 0.1385963 0.0188958
0.0758620 0.1388336 0.0188515
0.0841881 0.1391735 0.0188040
0.0938146 0.1396106 0.0187408
0.1044010 0.1401365 0.0186620
0.1156947 0.1407441 0.0185678
0.1274891 0.1414418 0.0184460
0.1396865 0.1422167 0.0183199
0.1521891 0.1430688 0.0181650
0.1649143 0.1439895 0.0179958
0.1778258 0.1449956 0.0178091
0.1908923 0.1460677 0.0176040
0.2040807 0.1472116 0.0173725
0.2173653 0.1484131 0.0171222
0.2307387 0.1496955 0.0168454
0.2441743 0.1510295 0.0165476
0.2576638 0.1524306 0.0162244
0.2712112 0.1538997 0.0158768
0.2847985 0.1554223 0.0154926
0.2984140 0.1570014 0.0150825
0.3120701 0.1586342 0.0146333
0.3257531 0.1603280 0.0141527
0.3394539 0.1620720 0.0136307
0.3531720 0.1638610 0.0130605
0.3669123 0.1657109 0.0124427
0.3806708 0.1676107 0.0117575
0.3944426 0.1695513 0.0109991
0.4082319 0.1715377 0.0101527
0.4220234 0.1735699 0.0091928
0.4358236 0.1756433 0.0080674
0.4498391 0.1777872 0.0066534
0.4644726 0.1800708 0.0044143
0.4799509 0.1825346 0.0020350
0.4963085 0.1851874 0.0009901
0.5131711 0.1880363 0.0006141
0.5300747 0.1911060 0.0001736
0.5468825 0.1944031 0.0000000
0.5636089 0.1979387 0.0000000
0.5802551 0.2017334 0.0000000
0.5968369 0.2057951 0.0000000
0.6133605 0.2101436 0.0000000
0.6298226 0.2148007 0.0000000
0.6462330 0.2197726 0.0000000
0.6625976 0.2250798 0.0000000
0.6789238 0.2307329 0.0000000
0.6952092 0.2367567 0.0000000
0.7114597 0.2431782 0.0000000
0.7276672 0.2499963 0.0000000
0.7438514 0.2572359 0.0000000
0.7600182 0.2649334 0.0000000
0.7761478 0.2730907 0.0000000
0.7922652 0.2817332 0.0000000
0.8083597 0.2908762 0.0000000
0.8244231 0.3005618 0.0000000
0.8404810 0.3107886 0.0000000
0.8565241 0.3216018 0.0000000
0.8725518 0.3330149 0.0000000
0.8885652 0.3450556 0.0000000
0.9045640 0.3577420 0.0000000
0.9205589 0.3711181 0.0000000
0.9365410 0.3852032 0.0000000
0.9525077 0.4000261 0.0000000
0.0706093 0.1537717 0.0210206
0.0719617 0.1538196 0.0210179
0.0758365 0.1539444 0.0210020
0.0818613 0.1541751 0.0209704
0.0896297 0.1544738 0.0209252
0.0987293 0.1548747 0.0208621
0.1088343 0.1553434 0.0207869
0.1196957 0.1559021 0.0207063
0.1311183 0.1565360 0.0206002
0.1429900 0.1572363 0.0204898
0.1552045 0.1580136 0.0203528
0.1676923 0.1588665 0.0202104
0.1803866 0.1597808 0.0200399
0.1932648 0.1607607 0.0198551
0.2062819 0.1618129 0.0196527
0.2194139 0.1629186 0.0194351
0.2326480 0.1640943 0.0191997
0.2459645 0.1653222 0.0189370
0.2593520 0.1666110 0.0186586
0.2727948 0.1679606 0.0183605
0.2862946 0.1693694 0.0180326
0.2998386 0.1708312 0.0176784
0.3134169 0.1723486 0.0173039
0.3270271 0.1739129 0.0168996
0.3406687 0.1755266 0.0164638
0.3543379 0.1771910 0.0159975
0.3680297 0.1789055 0.0155012
0.3817398 0.1806652 0.0149678
0.3954645 0.1824799 0.0143841
0.4092076 0.1843352 0.0137542
0.4229657 0.1862297 0.0130732
0.4367403 0.1881705 0.0123187
0.4507162 0.1901814 0.0114760
0.4653174 0.1923189 0.0104866
0.4807706 0.1946273 0.0092771
0.4970883 0.1971241 0.0077104
0.5138929 0.1998092 0.0052980
0.5307231 0.2027004 0.0024559
0.5474699 0.2058183 0.0010945
0.5641403 0.2091702 0.0003599
0.5807407 0.2127678 0.0000000
0.5972790 0.2166277 0.0000000
0.6137568 0.2207651 0.0000000
0.6301811 0.2252031 0.0000000
0.6465594 0.2299548 0.0000000
0.6629004 0.2350322 0.0000000
0.6791903 0.2404514 0.0000000
0.6954511 0.2462492 0.0000000
0.7116837 0.2524279 0.0000000
0.7278745 0.2589966 0.0000000
0.7440430 0.2660059 0.0000000
0.7601838 0.2734480 0.0000000
0.7763053 0.2813533 0.0000000
0.7923985 0.2897531 0.0000000
0.8084864 0.2986592 0.0000000
0.8245474 0.3080951 0.0000000
0.8405912 0.3180928 0.0000000
0.8566204 0.3286594 0.0000000
0.8726350 0.3398327 0.0000000
0.8886458 0.3516369 0.0000000
0.9046413 0.3640993 0.0000000
0.9206236 0.3772529 0.0000000
0.9366030 0.3911147 0.0000000
0.9525697 0.4057200 0.0000000
0.0776752 0.1691490 0.0231262
0.0789039 0.1691941 0.0231133
0.0824523 0.1693082 0.0230973
0.0880283 0.1695102 0.0230663
0.0952885 0.1697889 0.0230335
0.1038917 0.1701462 0.0229741
0.1135313 0.1705815 0.0229108
0.1239761 0.1710923 0.0228340
0.1350287 0.1716691 0.0227410
0.1465733 0.1723185 0.0226440
0.1585042 0.1730347 0.0225228
0.1707299 0.1738205 0.0223961
0.1831961 0.1746606 0.0222433
0.1958703 0.1755641 0.0220831
0.2087070 0.1765383 0.0218991
0.2216883 0.1775644 0.0217017
0.2347742 0.1786507 0.0214938
0.2479626 0.1797946 0.0212626
0.2612326 0.1809886 0.0210156
0.2745741 0.1822348 0.0207521
0.2879684 0.1835400 0.0204678
0.3014230 0.1849020 0.0201599
0.3149262 0.1863063 0.0198344
0.3284654 0.1877602 0.0194886
0.3420347 0.1892728 0.0191142
0.3556442 0.1908250 0.0187149
0.3692810 0.1924232 0.0182929
0.3829347 0.1940682 0.0178412
0.3966120 0.1957612 0.0173591
0.4103140 0.1974978 0.0168470
0.4240318 0.1992758 0.0162975
0.4377656 0.2010947 0.0157034
0.4517022 0.2029808 0.0150572
0.4662653 0.2049936 0.0143281
0.4816853 0.2071641 0.0134794
0.4979603 0.2095144 0.0124831
0.5146991 0.2120506 0.0112925
0.5314504 0.2147850 0.0098115
0.5481277 0.2177296 0.0078223
0.5647412 0.2208980 0.0037220
0.5812842 0.2243089 0.0014817
0.5977691 0.2279797 0.0008961
0.6142073 0.2319282 0.0002202
0.6305907 0.2361583 0.0000000
0.6469315 0.2406922 0.0000000
0.6632308 0.2455515 0.0000000
0.6794950 0.2507507 0.0000000
0.6957276 0.2563169 0.0000000
0.7119288 0.2622616 0.0000000
0.7281005 0.2685947 0.0000000
0.7442514 0.2753570 0.0000000
0.7603754 0.2825585 0.0000000
0.7764813 0.2902272 0.0000000
0.7925590 0.2983687 0.0000000
0.8086307 0.3070305 0.0000000
0.8246767 0.3162183 0.0000000
0.8407061 0.3259640 0.0000000
0.8567319 0.3362907 0.0000000
0.8727439 0.3472134 0.0000000
0.8887394 0.3587776 0.0000000
0.9047219 0.3710035 0.0000000
0.9207009 0.3839183 0.0000000
0.9366678 0.3975462 0.0000000
0.9526317 0.4119381 0.0000000
0.0847312 0.1845262 0.0252217
0.0858626 0.1845591 0.0252215
0.0891329 0.1846821 0.0252055
0.0943183 0.1848680 0.0251745
0.1011296 0.1851177 0.0251425
0.1092704 0.1854466 0.0250951
0.1184635 0.1858490 0.0250357
0.1285037 0.1863164 0.0249706
0.1391959 0.1868558 0.0248802
0.1504035 0.1874470 0.0247854
0.1620403 0.1881124 0.0246794
0.1740056 0.1888318 0.0245661
0.1862469 0.1896191 0.0244266
0.1987096 0.1904576 0.0242745
0.2113575 0.1913602 0.0241191
0.2241617 0.1923179 0.0239443
0.2371014 0.1933256 0.0237457
0.2501519 0.1943839 0.0235438
0.2632970 0.1955026 0.0233275
0.2765269 0.1966747 0.0230896
0.2898172 0.1978885 0.0228311
0.3031793 0.1991562 0.0225613
0.3165952 0.2004654 0.0222684
0.3300521 0.2018299 0.0219606
0.3435516 0.2032422 0.0216351
0.3570895 0.2046995 0.0212891
0.3706612 0.2061981 0.0209184
0.3842585 0.2077414 0.0205262
0.3978874 0.2093340 0.0201114
0.4115394 0.2109576 0.0196735
